build/img/logo.svg

<svg width="85" height="87" viewBox="0 0 85 87" fill="none" xmlns="http://www.w3.org/2000/svg">
<g filter="url(#filter0_f_64_24)">
<path d="M4.77218 40.2752C2.53019 33.6789 5.87956 26.4504 12.2532 24.1301L49.7621 10.4749C56.1357 8.15459 63.1201 11.621 65.3621 18.2174L76.7395 51.692C78.9815 58.2883 75.6321 65.5168 69.2585 67.8371L31.7496 81.4923C25.3759 83.8126 18.3916 80.3462 16.1496 73.7498L4.77218 40.2752Z" fill="#4755D7"/>
</g>
<rect width="67.3307" height="65.702" rx="11" transform="matrix(0.940647 -0.339386 0.324398 0.945921 0 22.8511)" fill="#0E133F"/>
<rect width="64.3344" height="65.1333" rx="11" transform="matrix(0.940647 -0.339386 0.324398 0.945921 3.35498 22.0388)" fill="white"/>
<g filter="url(#filter1_f_64_24)">
<path d="M8.95743 32.3762C7.53727 28.6285 11.0192 22.1516 12.5476 20.5956C16.9472 18.9758 13.6782 20.5956 12.5476 25.1389C12.2539 26.3193 11.1498 29.2369 11.5913 30.8123L19.7538 56.3584L24.9317 69.8307L29.2683 73.7825C30.1163 75.1587 33.6451 76.7615 35.0497 77.2375C29.007 78.7671 23.9183 75.036 23.4238 72.8593C19.1934 60.9265 10.3776 36.1239 8.95743 32.3762Z" fill="#BEC4F8"/>
</g>
<path fill-rule="evenodd" clip-rule="evenodd" d="M4.99462 38.3757L8.85367 39.3459L29.8741 31.4034L30.0431 31.874L8.95004 39.8439C8.90273 39.8618 8.85135 39.8648 8.80267 39.8526L4.8689 38.8636L4.99462 38.3757Z" fill="#050D4E"/>
<path fill-rule="evenodd" clip-rule="evenodd" d="M6.8215 43.8119L11.1945 44.8609L42.4574 32.9904L42.6271 33.4607L11.2928 45.3583C11.2463 45.376 11.1957 45.3793 11.1477 45.3678L6.70093 44.301L6.8215 43.8119Z" fill="#050D4E"/>
<path d="M31.5741 31.7008C31.5741 32.5666 30.819 33.2684 29.8876 33.2684C28.9562 33.2684 28.2012 32.5666 28.2012 31.7008C28.2012 30.835 28.9562 30.1332 29.8876 30.1332C30.819 30.1332 31.5741 30.835 31.5741 31.7008Z" fill="#050D4E"/>
<path d="M44.5499 33.0196C44.5499 33.8854 43.7948 34.5872 42.8634 34.5872C41.932 34.5872 41.177 33.8854 41.177 33.0196C41.177 32.1538 41.932 31.452 42.8634 31.452C43.7948 31.452 44.5499 32.1538 44.5499 33.0196Z" fill="#050D4E"/>
<path d="M67.6147 48.777C67.5935 48.5739 67.8506 48.4686 67.9716 48.6308L69.9189 51.2414C69.9743 51.3157 70.0736 51.3408 70.1583 51.302L73.0913 49.9553C73.2744 49.8711 73.4486 50.0815 73.3354 50.25L71.5069 52.9705C71.4554 53.0472 71.4615 53.1489 71.5218 53.2172L73.6785 55.6641C73.8117 55.8152 73.6618 56.0505 73.4698 55.9918L70.4 55.0543C70.3108 55.027 70.2141 55.0666 70.1678 55.1494L68.5719 57.9979C68.472 58.1761 68.2054 58.1114 68.2005 57.9078L68.1209 54.6101C68.1187 54.518 68.0548 54.44 67.966 54.4208L64.8135 53.7403C64.6183 53.6982 64.6033 53.4226 64.7926 53.3541L67.8232 52.2583C67.9107 52.2267 67.9659 52.1383 67.9561 52.0453L67.6147 48.777Z" fill="#050D4E"/>
<defs>
<filter id="filter0_f_64_24" x="0.0756836" y="5.75409" width="81.3604" height="80.459" filterUnits="userSpaceOnUse" color-interpolation-filters="sRGB">
<feFlood flood-opacity="0" result="BackgroundImageFix"/>
<feBlend mode="normal" in="SourceGraphic" in2="BackgroundImageFix" result="shape"/>
<feGaussianBlur stdDeviation="2" result="effect1_foregroundBlur_64_24"/>
</filter>
<filter id="filter1_f_64_24" x="5.62402" y="16.9832" width="32.4258" height="63.6125" filterUnits="userSpaceOnUse" color-interpolation-filters="sRGB">
<feFlood flood-opacity="0" result="BackgroundImageFix"/>
<feBlend mode="normal" in="SourceGraphic" in2="BackgroundImageFix" result="shape"/>
<feGaussianBlur stdDeviation="1.5" result="effect1_foregroundBlur_64_24"/>
</filter>
</defs>
</svg>

<svg width="85" height="87" fill="none" xmlns="http://www.w3.org/2000/svg"><g filter="url(#filter0_f_64_24)"><path d="M4.772 40.275C2.53 33.68 5.88 26.45 12.253 24.13l37.51-13.655c6.373-2.32 13.357 1.146 15.6 7.742L76.74 51.692c2.242 6.596-1.108 13.825-7.481 16.145l-37.51 13.655c-6.373 2.32-13.357-1.146-15.6-7.742L4.773 40.275z" fill="#4755D7"/></g><rect width="67.331" height="65.702" rx="11" transform="matrix(.94065 -.33939 .3244 .94592 0 22.851)" fill="#0E133F"/><rect width="64.334" height="65.133" rx="11" transform="matrix(.94065 -.33939 .3244 .94592 3.355 22.039)" fill="#fff"/><g filter="url(#filter1_f_64_24)"><path d="M8.957 32.376c-1.42-3.747 2.062-10.224 3.59-11.78 4.4-1.62 1.131 0 0 4.543-.293 1.18-1.397 4.098-.956 5.673l8.163 25.546 5.178 13.473 4.336 3.951c.848 1.377 4.377 2.98 5.782 3.456-6.043 1.53-11.132-2.202-11.626-4.379-4.23-11.932-13.046-36.735-14.467-40.483z" fill="#BEC4F8"/></g><path fill-rule="evenodd" clip-rule="evenodd" d="M4.995 38.376l3.859.97 21.02-7.943.17.471-21.094 7.97a.247.247 0 01-.147.009l-3.934-.99.126-.487zm1.827 5.436l4.372 1.049 31.263-11.87.17.47-31.334 11.897a.247.247 0 01-.145.01L6.7 44.3l.12-.49z" fill="#050D4E"/><path d="M31.574 31.7c0 .867-.755 1.568-1.686 1.568-.932 0-1.687-.701-1.687-1.567s.755-1.568 1.687-1.568c.931 0 1.686.702 1.686 1.568zm12.976 1.32c0 .865-.755 1.567-1.687 1.567-.931 0-1.686-.702-1.686-1.567 0-.866.755-1.568 1.686-1.568.932 0 1.687.702 1.687 1.568zm23.065 15.757c-.021-.203.236-.308.357-.146l1.947 2.61c.055.075.155.1.24.061l2.932-1.347c.183-.084.358.127.244.295l-1.828 2.72a.203.203 0 00.015.247l2.156 2.447c.134.151-.016.386-.208.328l-3.07-.938a.2.2 0 00-.232.095l-1.596 2.849c-.1.178-.367.113-.371-.09l-.08-3.298a.197.197 0 00-.155-.19l-3.152-.68c-.196-.042-.21-.317-.021-.386l3.03-1.096a.204.204 0 00.133-.213l-.341-3.268z" fill="#050D4E"/><defs><filter id="filter0_f_64_24" x=".076" y="5.754" width="81.36" height="80.459" filterUnits="userSpaceOnUse" color-interpolation-filters="sRGB"><feFlood flood-opacity="0" result="BackgroundImageFix"/><feBlend in="SourceGraphic" in2="BackgroundImageFix" result="shape"/><feGaussianBlur stdDeviation="2" result="effect1_foregroundBlur_64_24"/></filter><filter id="filter1_f_64_24" x="5.624" y="16.983" width="32.426" height="63.612" filterUnits="userSpaceOnUse" color-interpolation-filters="sRGB"><feFlood flood-opacity="0" result="BackgroundImageFix"/><feBlend in="SourceGraphic" in2="BackgroundImageFix" result="shape"/><feGaussianBlur stdDeviation="1.5" result="effect1_foregroundBlur_64_24"/></filter></defs></svg>
